src/icons/main-listener-update.svg

<?xml version="1.0" encoding="utf-8"?>
<!-- Generator: Adobe Illustrator 20.1.0, SVG Export Plug-In . SVG Version: 6.00 Build 0)  -->
<svg version="1.1" id="Layer_1" xmlns="http://www.w3.org/2000/svg" xmlns:xlink="http://www.w3.org/1999/xlink" x="0px" y="0px"
	 viewBox="0 0 13 14" style="enable-background:new 0 0 13 14;" xml:space="preserve">
<style type="text/css">
	.st0{fill:#4D5969;}
</style>
<title>HDL/Icon/Standard/listener-update</title>
<desc>Created with Sketch.</desc>
<g id="Colors">
	<g id="Main-Icons" transform="translate(-1121.000000, -923.000000)">
		<g id="Listener-Update" transform="translate(1099.000000, 905.000000)">
			<g id="HDL_x2F_Icon_x2F_Standard_x2F_listener-update" transform="translate(22.000000, 18.000000)">
				<path id="Shape" class="st0" d="M6.1,0C5.9,0,5.8,0.1,5.7,0.3c-0.1,0.2-0.1,0.4,0,0.6C5.8,1,5.9,1.1,6.1,1.1c2.8,0,5,2.2,5,5
					c0,0.2,0.1,0.4,0.3,0.5c0.2,0.1,0.4,0.1,0.6,0s0.3-0.3,0.3-0.5C12.3,2.8,9.5,0,6.1,0z M6.1,2.2C4,2.2,2.2,4,2.2,6.1
					c0,0.2,0.1,0.4,0.3,0.5s0.4,0.1,0.6,0c0.2-0.1,0.3-0.3,0.3-0.5c0-1.5,1.2-2.8,2.8-2.8S9,4.5,9,6.1c0,1-0.2,1.6-0.5,2.1
					s-0.6,1-0.6,1.8c0,0.9-0.7,1.7-1.7,1.7c-0.2,0-0.4,0.1-0.5,0.3c-0.1,0.2-0.1,0.4,0,0.6c0.1,0.2,0.3,0.3,0.5,0.3
					c1.5,0,2.8-1.3,2.8-2.8c0-0.4,0.2-0.7,0.5-1.3c0.3-0.6,0.6-1.4,0.6-2.6C10.1,4,8.3,2.2,6.1,2.2z M6.1,4.5
					c-0.9,0-1.7,0.8-1.7,1.7c0,0.2,0.1,0.4,0.3,0.5c0.2,0.1,0.4,0.1,0.6,0c0.2-0.1,0.3-0.3,0.3-0.5c0-0.3,0.2-0.6,0.6-0.6
					c0.3,0,0.6,0.2,0.6,0.6c0,0.2,0.1,0.4,0.3,0.5c0.2,0.1,0.4,0.1,0.6,0C7.9,6.6,8,6.4,8,6.2C7.8,5.2,7.1,4.5,6.1,4.5z M5.6,7.8
					C5.3,7.8,5,8.1,5,8.4C5,8.7,5.3,9,5.6,9c0.3,0,0.6-0.3,0.6-0.6C6.1,8.1,5.9,7.8,5.6,7.8z M3.4,8.9C3.2,8.9,3.1,9,3,9.1
					C2.7,9.3,2.7,9.7,3,9.9L4.1,11c0.2,0.2,0.6,0.2,0.8,0c0.2-0.2,0.2-0.6,0-0.8L3.7,9.1C3.6,9,3.5,8.9,3.4,8.9z M2.2,11.2
					c-0.3,0-0.6,0.3-0.6,0.6s0.3,0.6,0.6,0.6s0.6-0.3,0.6-0.6S2.5,11.2,2.2,11.2z M0.6,12.8c-0.3,0-0.6,0.3-0.6,0.6
					C0,13.7,0.3,14,0.6,14s0.6-0.3,0.6-0.6C1.2,13.1,0.9,12.8,0.6,12.8z"/>
			</g>
		</g>
	</g>
</g>
</svg>

<?xml version="1.0" encoding="UTF-8"?>
<svg width="13px" height="14px" viewBox="0 0 13 14" version="1.1" xmlns="http://www.w3.org/2000/svg" xmlns:xlink="http://www.w3.org/1999/xlink">
    <!-- Generator: Sketch 59 (86127) - https://sketch.com -->
    <title>HDL/Icon/Standard/listener-update</title>
    <desc>Created with Sketch.</desc>
    <g id="Colors" stroke="none" stroke-width="1" fill="none" fill-rule="evenodd">
        <g id="Main-Icons" transform="translate(-1121.000000, -923.000000)" fill="#4D5969">
            <g id="Listener-Update" transform="translate(1099.000000, 905.000000)">
                <g id="HDL/Icon/Standard/listener-update" transform="translate(22.000000, 18.000000)">
                    <path d="M6.1,0 C5.9,0 5.8,0.1 5.7,0.3 C5.6,0.5 5.6,0.7 5.7,0.9 C5.8,1 5.9,1.1 6.1,1.1 C8.9,1.1 11.1,3.3 11.1,6.1 C11.1,6.3 11.2,6.5 11.4,6.6 C11.6,6.7 11.8,6.7 12,6.6 C12.2,6.5 12.3,6.3 12.3,6.1 C12.3,2.8 9.5,0 6.1,0 Z M6.1,2.2 C4,2.2 2.2,4 2.2,6.1 C2.2,6.3 2.3,6.5 2.5,6.6 C2.7,6.7 2.9,6.7 3.1,6.6 C3.3,6.5 3.4,6.3 3.4,6.1 C3.4,4.6 4.6,3.3 6.2,3.3 C7.8,3.3 9,4.5 9,6.1 C9,7.1 8.8,7.7 8.5,8.2 C8.2,8.7 7.9,9.2 7.9,10 C7.9,10.9 7.2,11.7 6.2,11.7 C6,11.7 5.8,11.8 5.7,12 C5.6,12.2 5.6,12.4 5.7,12.6 C5.8,12.8 6,12.9 6.2,12.9 C7.7,12.9 9,11.6 9,10.1 C9,9.7 9.2,9.4 9.5,8.8 C9.8,8.2 10.1,7.4 10.1,6.2 C10.1,4 8.3,2.2 6.1,2.2 Z M6.1,4.5 C5.2,4.5 4.4,5.3 4.4,6.2 C4.4,6.4 4.5,6.6 4.7,6.7 C4.9,6.8 5.1,6.8 5.3,6.7 C5.5,6.6 5.6,6.4 5.6,6.2 C5.6,5.9 5.8,5.6 6.2,5.6 C6.5,5.6 6.8,5.8 6.8,6.2 C6.8,6.4 6.9,6.6 7.1,6.7 C7.3,6.8 7.5,6.8 7.7,6.7 C7.9,6.6 8,6.4 8,6.2 C7.8,5.2 7.1,4.5 6.1,4.5 Z M5.6,7.8 C5.3,7.8 5,8.1 5,8.4 C5,8.7 5.3,9 5.6,9 C5.9,9 6.2,8.7 6.2,8.4 C6.1,8.1 5.9,7.8 5.6,7.8 Z M3.4,8.9 C3.2,8.9 3.1,9 3,9.1 C2.7,9.3 2.7,9.7 3,9.9 L4.1,11 C4.3,11.2 4.7,11.2 4.9,11 C5.1,10.8 5.1,10.4 4.9,10.2 L3.7,9.1 C3.6,9 3.5,8.9 3.4,8.9 Z M2.2,11.2 C1.9,11.2 1.6,11.5 1.6,11.8 C1.6,12.1 1.9,12.4 2.2,12.4 C2.5,12.4 2.8,12.1 2.8,11.8 C2.8,11.5 2.5,11.2 2.2,11.2 Z M0.6,12.8 C0.3,12.8 9.05941988e-14,13.1 9.05941988e-14,13.4 C9.05941988e-14,13.7 0.3,14 0.6,14 C0.9,14 1.2,13.7 1.2,13.4 C1.2,13.1 0.9,12.8 0.6,12.8 Z" id="Shape"></path>
                </g>
            </g>
        </g>
    </g>
</svg>
